X:129
T:Polska fr{\aa}n Gladhammar
R:sl\"angpolska
H:efter Johan Petter Landholm
A:Sm{\aa}land
Z:id:hn-sp-129
M:3/4
L:1/16
K:D
A2d2 d2f2 f2ed | A2c2 e2g2 g2a2 | f2fg e2ef d2d2 |
edcd edcB A4 | A2d2 d2f2 f2ed | A2c2 e2g2 g2a2 |
f2fg e2ef d2d2 | fedc c2d2 d4 :||: f2fd f2a2 a2f2 |
e2ec A2ce g2e2 | f2fd f2a2 a2f2 | e2ec A2ce g2e2 |
d2dc d2f2 f2e2 | e2ec e2g2 g2a2 | f2fg e2ef d2d2 |
fedc c2d2 d4 :|
